**kern	**silbe	**kern	**silbe
*ICvox	*	*ICvox	*
*B-:	*	*B-:	*
*M4/4	*	*M4/4	*
*clefGv2	*	*clefG2	*
r;	.	1r	.
=1	=1	=1	=1
1r	.	1r	.
=2	=2	=2	=2
1r	.	1r	.
=3	=3	=3	=3
1r	.	1r	.
=4	=4	=4	=4
8.F	All	1r	.
16[G	the	.	.
8G]	_	.	.
8[B-	wai	.	.
16B-]	_	.	.
8.F	ters	.	.
8G	in	.	.
8B-	your	.	.
=5	=5	=5	=5
8.G	grand	1r	.
16[A	ca	.	.
8A]	_	.	.
8[c	fe	.	.
8c]	_	.	.
8r	.	.	.
4r	.	.	.
=6	=6	=6	=6
8.c	leave	1r	.
16[d	their	.	.
8d]	_	.	.
8[f	ta	.	.
16f]	_	.	.
8.c	bles	.	.
8d	when	.	.
8f	you	.	.
=7	=7	=7	=7
8d	blink	1r	.
8r	.	.	.
8r	.	.	.
16d-~	oh	.	.
16[c	_	.	.
4c]	_	.	.
16d-~	_	.	.
16c	_	.	.
16B-	_	.	.
16G	_	.	.
=8	=8	=8	=8
8.F	ev-	1r	.
16[G	-'ry	.	.
8G]	_	.	.
8B-	dog	.	.
16r	.	.	.
8.F	must	.	.
8G	have	.	.
8B-	his	.	.
=9	=9	=9	=9
8.G	ev-	1r	.
16[A	-'ry	.	.
8A]	_	.	.
8[c	day	.	.
8c]	_	.	.
8r	.	.	.
4r	.	.	.
=10	=10	=10	=10
8.c	ev-	1r	.
16[d	-'ry	.	.
8d]	_	.	.
8f	drunk	.	.
16r	.	.	.
8.c	must	.	.
8d	have	.	.
8f	his	.	.
=11	=11	=11	=11
8cq	_	.	.
8d	drink	1r	.
8r	.	.	.
8r	.	.	.
16d	Don't	.	.
16B-Q	_	.	.
16[c	wait	.	.
4.c]	_	.	.
16d	for	.	.
16[B-	an	.	.
=12	=12	=12	=12
16B-]	_	1r	.
8.G	swers	.	.
8r	.	.	.
16d	just	.	.
16B-Q	_	.	.
16[c	take	.	.
4.c]	_	.	.
16d	your	.	.
16[B-	chan	.	.
=13	=13	=13	=13
16B-]	_	1r	.
8.G	ces	.	.
8r	.	.	.
8c~q	_	.	.
16d-~	don't	.	.
16[c	ask	.	.
4c]	_	.	.
8r	.	.	.
16B-	me	.	.
16[B-	why	.	.
=14	=14	=14	=14
4.B-]	_	1r	.
8r	.	.	.
2r	.	.	.
=15	=15	=15	=15
1r	.	1r	.
=16	=16	=16	=16
8.F	All	1r	.
16[G	your	.	.
8G]	_	.	.
8B-	life	.	.
16r	.	.	.
8.F	you	.	.
8G	had	.	.
8B-	to	.	.
=17	=17	=17	=17
8.G	stand	1r	.
16[A	in	.	.
8A]	_	.	.
8[c	line	.	.
4c]	_	.	.
4r	.	.	.
=18	=18	=18	=18
8.c	still	1r	.
16[d	you're	.	.
8d]	_	.	.
8[f	stan	.	.
16f]	_	.	.
8.c	ding	.	.
8d	on	.	.
8f	your	.	.
=19	=19	=19	=19
8d	feet	1r	.
8r	.	.	.
8r	.	.	.
16d	Oh	.	.
16[c	_	.	.
4c]	_	.	.
16d	_	.	.
16c	_	.	.
16B-	_	.	.
16G	_	.	.
=20	=20	=20	=20
8.F	all	1r	.
16[G	the	.	.
8G]	_	.	.
8[B-	choi	.	.
16B-]	_	.	.
16F	ces	.	.
8r	.	.	.
8G	made	.	.
8B-	you	.	.
=21	=21	=21	=21
8.G	change	1r	.
16[A	your	.	.
8A]	_	.	.
8[c	mind	.	.
4c]	_	.	.
4r	.	.	.
=22	=22	=22	=22
8.c	now	1r	.
16[d	your	.	.
8d]	_	.	.
8[f	ca	.	.
16f]	_	.	.
8.c	len-	.	.
8d	-dar's	.	.
8f	com	.	.
=23	=23	=23	=23
8cq	_	.	.
8d	plete	1r	.
8r	.	.	.
8r	.	.	.
16d-	don't	.	.
16B-Q	_	.	.
16[c	wait	.	.
4.c]	_	.	.
16d-~	for	.	.
16[B-	an	.	.
=24	=24	=24	=24
16B-]	_	1r	.
8.G	swers	.	.
8r	.	.	.
16B-~	just	.	.
8B-q	_	.	.
16[c	take	.	.
4.c]	_	.	.
16d~	your	.	.
16[B-	chan	.	.
=25	=25	=25	=25
16B-]	_	1r	.
8.G	ces	.	.
8r	.	.	.
8c~q	_	.	.
16d-~	don't	.	.
16[c	ask	.	.
4c]	_	.	.
8B-	_	.	.
16B-	me	.	.
16[B-	why	.	.
=26	=26	=26	=26
2B-]	_	1r	.
2r	.	.	.
=27	=27	=27	=27
2r	.	1r	.
8r	.	.	.
8[c	Mmm,	.	.
16c]	_	.	.
8.c	_	.	.
=28	=28	=28	=28
16c	you	1r	.
8.c	can	.	.
8.c	say	.	.
16B-	the	.	.
16c	hu-	.	.
8c	-man	.	.
16cQ	_	.	.
16[d	heart	.	.
8d]	_	.	.
16c	is	.	.
16[c	on	.	.
=29	=29	=29	=29
8c]	_	1r	.
16B-	ly	.	.
16[B-	make	.	.
8B-]	_	.	.
16G	be-	.	.
16[B-	-lieve	.	.
8B-]	_	.	.
8r	.	.	.
4r	.	.	.
=30	=30	=30	=30
16A	I	1r	.
8A	am	.	.
16[A	on	.	.
8A]	_	.	.
8B-	ly	.	.
16c	figh-	.	.
8B-	-ting	.	.
16B-	fi-	.	.
8A	-re	.	.
8G	with	.	.
=31	=31	=31	=31
16G	fi-	1r	.
8.F	-re	.	.
4r	.	.	.
4r	.	.	.
8.r	.	.	.
16BB-~	But	.	.
=32	=32	=32	=32
16B	you	16d	you
8.B	are	8.d	are
8B	still	8d	still
16c	a	16e	a
16[d	vic	16[f	vic
16d]	_	16f]	_
8.c	tim	8.e	tim
16cQ	_	16eQ	_
8B	of	8d	of
16A	the	16d	the
16[A	ac	16[d	ac
=33	=33	=33	=33
8A]	_	8d]	_
16G	ci-	16c	ci-
16[G	-dents	16[c	-dents
8G]	_	8c]	_
16F~	you	16A~	you
16[G	leave	16[c	leave
8G]	_	8c]	_
8r	.	8r	.
4r	.	4r	.
=34	=34	=34	=34
16B	sure	16d	sure
8.B	as	8.d	as
8B	I'm	8d	I'm
16c	a	16e-	a
16d	vic	16f	vic
16r	.	16r	.
8.d	tim	8.f	tim
16e	of	16g	of
16d	_	16f	_
16c	de-	16e	de-
16[c	-sign,	16[e	-sign,
=35	=35	=35	=35
2c]	_	2e]	_
8.B-	yeah,	8.d	yeah,
16[A	yeah,	16[c	yeah,
8A]	_	8c]	_
8G	yeah,	8B-	yeah,
=36	=36	=36	=36
8.F	all	8.D 8.B-	all
16[G	the	16[E- 16[c	the
8G]	_	8E-] 8c]	_
8[B-	ser	8[F 8[d	ser
16B-]	_	16F] 16d]	_
16F	vants	16D 16B-	vants
8r	.	8r	.
8G	in	8E- 8c	in
8B-	your	8F 8d	your
=37	=37	=37	=37
8.G	new	8.E 8.c	new
16[A	ho	16[F 16[d	ho
8A]	_	8F] 8d]	_
8[c	tel	8[G 8[e	tel
8c]	_	8G] 8e]	_
8r	.	8r	.
4r	.	4r	.
=38	=38	=38	=38
8.c	throw	1r	.
16[d	their	.	.
8d]	_	.	.
8[f	ro	.	.
16f]	_	.	.
8.c	ses	.	.
8d	at	.	.
8f	your	.	.
=39	=39	=39	=39
8d	feet	1r	.
8r	.	.	.
8r	.	.	.
16d	Oh	.	.
16[c	_	.	.
4c]	_	.	.
16d-~	_	.	.
16c	_	.	.
16B-	_	.	.
16G	_	.	.
=40	=40	=40	=40
8.F	fool	8.D 8.B-	fool
16[G	them	16[E- 16[c	them
8G]	_	8E-] 8c]	_
8[B-	all,	8[F 8[d	all,
16B-]	_	16F] 16d]	_
16F	but	16D 16B-	but
8r	.	8r	.
8G	ba-	8E- 8c	ba-
8B-	-by	8F 8d	-by
=41	=41	=41	=41
8.G	I	8.E 8.c	I
16[A	can	16[F 16[d	can
8A]	_	8F] 8d]	_
8[c	tell	8[G 8[e	tell
8c]	_	8G] 8e]	_
8r	.	8r	.
4r	.	4r	.
=42	=42	=42	=42
8.c	you're	1r	.
16[d	no	.	.
8d]	_	.	.
8[f	stran	.	.
16f]	_	.	.
8.c	ger	.	.
8d	to	.	.
8f	the	.	.
=43	=43	=43	=43
8d	street	2d 2f	Ooh!
8r	.	.	.
8r	.	.	.
16d-	Don't	.	.
16B-Q	_	.	.
16[c	ask	.	.
4.c]	_	2c 2f#	_
16d	for	.	.
16AQ	_	.	.
16[B-	fa	.	.
=44	=44	=44	=44
16B-]	_	2B- 2g	_
8.G	vors	.	.
8r	.	.	.
8d	don't	.	.
16B-Q	_	.	.
4.c	talk	2A- 2f	_
16d	to	.	.
16[B-	stran	.	.
=45	=45	=45	=45
16B-]	_	2G 2e	_
8.G	gers	.	.
8r	.	.	.
8c~q	_	.	.
16d-~	don't	.	.
16[c	ask	.	.
4.c]	_	2F 2e-	_
16B-	me	.	.
16[B-	why	.	.
=46	=46	=46	=46
4.B-]	_	1F 1d	_
8r	.	.	.
2r	.	.	.
=47	=47	=47	=47
1r	.	1r	.
=48	=48	=48	=48
1r	.	1r	.
=49	=49	=49	=49
1r	.	1r	.
=50	=50	=50	=50
1r	.	1r	.
=51	=51	=51	=51
1r	.	1r	.
=52	=52	=52	=52
1r	.	1r	.
=53	=53	=53	=53
1r	.	1r	.
=54	=54	=54	=54
1r	.	1r	.
=55	=55	=55	=55
1r	.	1r	.
=56	=56	=56	=56
8.F	Yes	1r	.
16[G	ter	.	.
8G]	_	.	.
8[B-	day	.	.
16B-]	_	.	.
8.F	you	.	.
8G	were	.	.
8B-	an	.	.
=57	=57	=57	=57
8.G	on-	1r	.
16[A	-ly	.	.
8A]	_	.	.
8[c	child	.	.
8c]	_	.	.
8r	.	.	.
4r	.	.	.
=58	=58	=58	=58
8.c	now	1r	.
16[d	your	.	.
8d]	_	.	.
8f	ghosts	.	.
16r	.	.	.
8.c	have	.	.
8d	gone	.	.
8f	a	.	.
=59	=59	=59	=59
8cq	_	.	.
8d	way	1r	.
8r	.	.	.
8r	.	.	.
16d-~	oh	.	.
16[c	_	.	.
4c]	_	.	.
16d-~	_	.	.
16c	_	.	.
16B-	_	.	.
16G	_	.	.
=60	=60	=60	=60
8.F	you	1r	.
16[G	can	.	.
8G]	_	.	.
8B-	kill	.	.
16r	.	.	.
8.F	them	.	.
8G	in	.	.
8B-	the	.	.
=61	=61	=61	=61
8.G	clas-	1r	.
16[A	-sic	.	.
8A]	_	.	.
8[c	style	.	.
8c]	_	.	.
8r	.	.	.
4r	.	.	.
=62	=62	=62	=62
8.c	now	1r	.
16[d	you	.	.
8d]	_	.	.
8[f	par-	.	.
16f]	_	.	.
8.c	-lez	.	.
8d	vous	.	.
8f	fran-	.	.
=63	=63	=63	=63
8cq	_	.	.
8d	-cais	2d 2f	Ooh
4r	.	.	.
8d	don't	.	.
8B-q	_	.	.
4[c	look	2c 2f#	_
16c]	_	.	.
8d	for	.	.
16[B-	an	.	.
=64	=64	=64	=64
16B-]	_	2B- 2g	_
8G	swers	.	.
16r	.	.	.
8r	.	.	.
16B-	you	.	.
16B-Q	_	.	.
16[c	took	.	.
4c_	_	2A- 2f	_
16c]	_	.	.
8d	your	.	.
16[B-	chan	.	.
=65	=65	=65	=65
16B-]	_	2G 2e	_
8.G	ces	.	.
8r	.	.	.
16d	don't	.	.
16[f	ask	.	.
16f]	_	2F 2e-	_
32c	_	.	.
32d	_	.	.
8[c	_	.	.
8c]	_	.	.
16B-	me	.	.
16[B-	why!	.	.
=66	=66	=66	=66
1B-]	_	1F 1d	_
=67	=67	=67	=67
2r	.	2r	.
8r	.	8r	.
16F	Don't	16B-	Don't
16[G	ask	16[c	ask
8G]	_	8c]	_
16F	me	16B-	me
16[BB-	why	16[F	why
=68	=68	=68	=68
1BB-]	_	1F]	_
=69	=69	=69	=69
1r	.	1r	.
r;	.	r;	.
*-	*-	*-	*-
!!!ENC: Nathaniel Condit-Schultz